!!!!SEGMENT: pl-wnifc--6021-n--004_stefani-p--krosienka-darmo-mi-matko-stawisz-krosienka.krn
!!!cenid: 18xx:3915
!!!COM: Stefani, P.
!!!COM-rismID: pe50044921
!!!CDT:
!!!CNT:
!!!OTL: Krosienka/Darmo mi matko stawisz krosienka
!!!PDT:
!!!AGN:
!!!YEC: Copyright 2022 Narodowy Instytut Fryderyka Chopina (https://polishscores.org)
!!!YEM: License CC-BY-4.0 (https://creativecommons.org/licenses/by/4.0)
!!!SMS-siglum: PL-Wnifc
!!!SMS-shelfmark: 6021/n
!!!SMS-variant:
!!!SMS-altvar:
!!!SMS-shelfwork: 004 W
!!!NIFC-rismSourceID: 1001134154
!!!NIFC-rismChildID: 1001134162
!!!NIFC-islandoraID: nifc:212586
!!!URL-pdf-islandora: https://repozytorium.nifc.pl/islandora/object/nifc%3A212586/datastream/PDF/view
!!!URL-scan: https://polish.musicsources.pl/pl/lokalizacje/galeria/druki-muzyczne/16848 @EN{Scan on Polish Music Sources Website} @PL{Skany w portalu Dziedzictwo Muzyki Polskiej w otwartym dostępie}
!!!IIIF:
!!!ONB-nifc: UWAGA: s. 10-11
!!!AIN: 2 clavi 1 vox
!!!key: A
**kern	**kern	**kern	**text
*part3	*part2	*part1	*
*staff3	*staff2	*staff1	*
*I"Klavikord	*I"Klavikord	*I"[Voce]	*
*I'clavicordo	*I'clavicordo	*I'V	*
*ICklav	*ICklav	*ICvox	*
*Iclavi	*Iclavi	*Ivox	*
*clefF4	*clefG2	*clefG2	*
*k[f#c#g#]	*k[f#c#g#]	*k[f#c#g#]	*
*A:	*A:	*A:	*
*M3/8	*M3/8	*M3/8	*
=1	=1	=1	=1
!!LO:TX:t=P:problem:system decoration wg źródła	!	!	!	!	!
8AA/L	8a'\L 8cc#	4.r	.
8A\	(16a\L 16cc#	.	.
.	16ee\)	.	.
8A\J	(16b\ 16dd	.	.
.	16ff#\JJ)	.	.
=2	=2	=2	=2
!LO:TX:t=P:problem:mixed beam	!	!LO:TX:a:i:t=Krosienka przez Kniaznina z Muzyką P&colon; Stefaniego.	!
16AA/LL	4cc#\ 4ee	4.r	.
16A\	.	.	.
16G#\	.	.	.
16A\	.	.	.
.	(8qgg#X/	.	.
16c#\	8aa\)	.	.
16A\JJ	.	.	.
=3	=3	=3	=3
8E\L	8g#\L 8b	4.r	.
8E\	16g#\L 16b	.	.
.	16dd\	.	.
8E\J	16a\ 16cc#	.	.
.	16ee\JJ	.	.
=4	=4	=4	=4
8E\	8b\ 8dd	4.r	.
8r	8r	.	.
8r	8r	.	.
=5	=5	=5	=5
8c#\L	8e/L 8a	4.r	.
8c#\	8e/ 8a	.	.
8c#\J	8en/J 8g# 8a#X	.	.
=6	=6	=6	=6
8d\	16f#/LL 16b	4.r	.
.	16cc#/	.	.
8r	16dd/	.	.
.	16ee/J	.	.
8r	8ff#/J	.	.
=7	=7	=7	=7
8E\L	16e/LL	4.r	.
.	16g#/	.	.
8D#X\	16f#/	.	.
.	16a/	.	.
8Dn\J	16g#/	.	.
.	16b/JJ	.	.
=8	=8	=8	=8
8C#/L	8a/L	4.r	.
8AA/J	8cc#/J 8aa	.	.
8r	8r	.	.
=9	=9	=9	=9
8A\	16a/LL 16cc#	8cc#\	Dar-
.	16e/JJ	.	.
8A\	16a/LL 16cc#	8cc#\	-mo
.	16e/JJ	.	.
8A\	16b/LL 16dd	8dd\	mi,
.	16e/JJ	.	.
!!LO:LB:g=original	!	!	!
=10	=10	=10	=10
*tremolo	*	*	*
8A\L	16cc#\LL 16ee	4ee\	ma-
.	16e/JJ	.	.
8A\	16cc#\LL 16ee	.	.
.	16e/JJ	.	.
8A\J	16a/LL 16cc#	8cc#\	-tko!
.	16e/JJ	.	.
=11	=11	=11	=11
8E\L	16g#/LL 16b	8b\	sta-
.	16e/JJ	.	.
8E\	16g#/LL 16b	16b\LL	-wisz
.	16e/JJ	16dd\JJ	.
8E\J	16a/LL 16cc#	16cc#\LL	kro-
.	16e/JJ	16ee\JJ	.
=12	=12	=12	=12
8E\	16b/LL 16dd	(8.dd\L	-sien-
.	16e/JJ	.	.
8r	16b/LL 16dd	.	.
.	16e/JJ	16ff#\Jk)	.
8E\ 8d	16g#/LL 16b	8b/	-ka
.	16e/JJ	.	.
=13	=13	=13	=13
*Xtremolo	*	*	*
8c#\L	8e/L 8a	8a/	in-
8c#\	8e/ 8a	8a/	-sza
8c#\J 8e	8gn/J 8a#X	8a#X/	mnie
=14	=14	=14	=14
8d\	8f#/ 8b	16b\LL	te-
.	.	16cc#\	.
8r	8r	16dd\	.
.	.	16ee\JJ	.
8r	8r	8ff#\	.
=15	=15	=15	=15
*^	*	*	*
8e/L	4.E\	16ee\LL	8e/L	-raz
.	.	16gg#\	.	.
8d#X/	.	16ff#\	8f#/J	.
.	.	16aa\	.	.
8dn/J	.	16gg#\	8g#X/	myśl
.	.	16bb\JJ	.	.
=16	=16	=16	=16	=16
*	*tremolo	*	*	*
16c#/LL	8A\L	16aa\LL	8a/	wie-
16e/	.	16ccc#\JJ	.	.
16c#/	8A\	8.ccc#\L	8a/	-dzie.
16e/	.	.	.	.
16c#/	8A\J	.	8r	.
16e/JJ	.	16aa\Jk	.	.
=17	=17	=17	=17	=17
*Xtremolo	*tremolo	*	*	*
16d/LL	8G#\L 8B	16bb\LL	4.r	.
16e/	.	16ddd\	.	.
16d/	8G#\ 8B	16ee\	.	.
16e/	.	16ff#\	.	.
16d/	8G#\J 8B	16gg#\	.	.
16e/JJ	.	16ee\JJ	.	.
*!LO:LB:g=original	*	*	*	*
=18	=18	=18	=18	=18
*	*Xtremolo	*	*	*
16c#/LL	8A\L	16aa\LL	4.r	.
16e/JJ	.	16ccc#\JJ	.	.
8c#/	8A\J	8aa\	.	.
8rc	8rEEyy	8r	.	.
*v	*v	*	*	*
=19	=19	=19	=19
8E\ 8G#	16r	8b\	ah!
.	16e/LL	.	.
8r	16B/	8ee\	po-
.	16e/	.	.
8G#\	16B/	8dd\	-zwol
.	16e/JJ	.	.
=20	=20	=20	=20
.	.	8qdd/	.
4A\	16cn/LL	4ccn\	ra-
.	16e/	.	.
.	16c/	.	.
.	16e/	.	.
8G#\	16B/	8b\	-czey
.	16e/JJ	.	.
=21	=21	=21	=21
8E\	16B/LL	16b\LL	wy-
.	16e/	16ee\JJ	.
8r	16B/	8ee\	-źrzeć
.	16e/	.	.
8G#\	16B/	8dd\	z o-
.	16e/JJ	.	.
=22	=22	=22	=22
.	.	8qdd/	.
4A\	16cn/LL	4ccn\	-kien-
.	16e/	.	.
.	16c/	.	.
.	16e/	.	.
8G#\	16B/	8b\	-ka,
.	16e/JJ	.	.
=23	=23	=23	=23
16AA/LL	8a\L 8cc#	8cc#\	czy-
16A\	.	.	.
.	.	8qb#X/	.
16G#\	8a\ 8cc#	8cc#\	-li
16A\	.	.	.
.	.	8qb#/	.
16F#\	8a#X\J 8cc#	8cc#\	móy
16E\JJ	.	.	.
=24	=24	=24	=24
16D/LL	8.b\L 8.dd	8.dd\L	fi-
16C#/	.	.	.
16BB/	.	.	.
16AA/J	16cc#\K 16ee	16ee\Jk	.
8GG#/J	8dd\J 8ff#	8ff#\	-lon
!!LO:PB:g=original	!	!	!
=25	=25	=25	=25
8AA/	8cc#\L 8ee	8ee\	nie
8E\L	8a\ 8cc#	8cc#\L	ie-
8E\J	8g#\J 8b	8b\J	.
=26	=26	=26	=26
8A\	16a/LL	8a/	-dzie?
.	16a/ 16cc#	.	.
8r	16b/ 16dd	8r	.
.	16cc#/ 16ee	.	.
8r	16dd/ 16ff#	8r	.
.	16b/JJ 16gg#	.	.
=27	=27	=27	=27
*tremolo	*	*	*
16A\LL	16cc#\LL 16aa	(8aa\L	czy-
16A\	16cc#\ 16aa	.	.
16A\	16cc#\ 16ee	8ee\J)	.
16A\	16cc#\ 16ee	.	.
16A\	16a\ 16cc#	8cc#\	-li
16A\JJ	16a\JJ 16cc#	.	.
=28	=28	=28	=28
16D\LL	16f#\LL 16b	8b/	móy
16D\	16f#\ 16b	.	.
16D\	16dd\	8dd\	fi-
16D\	16dd\	.	.
16D\	16ff#\	8ff#\	-lon
16D\JJ	16ff#\JJ	.	.
=29	=29	=29	=29
*Xtremolo	*	*	*
8E\L	16ee\LL	8e/	nie
.	16ee\	.	.
8E\	16dd#X\ 16ff#	8f#/L	ie-
.	16dd#\ 16ff#	.	.
8E\J	16ddn\ 16gg#	8g#/J	.
.	16dd\JJ 16gg#	.	.
=30	=30	=30	=30
8A\	16cc#\LL 16aa	8a/	-dzie?
.	16ee\	.	.
8r	16dd#X\	8r	.
.	16ee\	.	.
8A\ 8c#X 8f#	16ff#\	8r	.
.	16ee\JJ	.	.
=31	=31	=31	=31
8B\ 8f#	16dd#X\LL	4.r	.
.	16ddn\	.	.
8r	16cc#\	.	.
.	16dd\	.	.
8G#\ 8B 8e	16ee\	.	.
.	16dd\JJ	.	.
=32	=32	=32	=32
8A\ 8e	16cc#\LL	4.r	.
.	16ee\	.	.
8r	16aa\	.	.
.	16ee\	.	.
8AA/	16dd\	.	.
.	16cc#\JJ	.	.
=33	=33	=33	=33
!LO:TX:t=P:problem:mixed beam	!	!	!
8D\L	16b\LL	4.r	.
.	16dd\	.	.
8E\	16a\	.	.
.	16cc#\	.	.
8EE/J	16g#\	.	.
.	16b\JJ	.	.
=34	=34	=34	=34
8AA/L	8a\L	4.r	.
8AA/	8cc#\ 8ee 8aa	.	.
8AA/J	8cc#\J 8ee 8aa	.	.
=35	=35	=35	=35
4AA/	4cc#\ 4ee 4aa	4.r	.
8r	8r	.	.
==	==	==	==
*-	*-	*-	*-
!!!system-decoration: [(s1){s2,s3}]
!!!RDF**kern: > = above
!!!RDF**kern: < = below
!!!ENC: Solarz Mateusz
!!!END: 2022-07-26
!!!ENC: Jan Barakat
!!!END: 2022-08-23
